X:161 
T:New Custom House (reel), The 
B:CRE3.175 (Teach Nua an Custaim)
F:file ID: cre.3/161new_ch
R:reel
L:1/8
%Q:180
M:C
K:G
"D modal"
dB|:ADdD (3EFG AB|cAGE CEGB|ADdD (3EFG AB|c3^c dcAG|
ADdD (3EFG AB|cAGE CEGB|ADdD (3EFG AB|cAGE EDD2:|
|:Addd Adfd|edcd efgg|Ad (3dcd Adfd|edcd eddB|
Ad (3dcd Adfd|edcd efge|faag efge|1 (3fga ge dcdB:|\
[2 (3fga ge d2B||

%%%

